assets/data/oqopoLogo.svg

<svg width="48" height="39" viewBox="0 0 48 39" fill="none" xmlns="http://www.w3.org/2000/svg">
<g clip-path="url(#clip0_60_16)">
<path d="M24.065 39C22.3301 38.9858 20.8988 37.5963 20.9277 35.9373C20.9566 34.2712 22.4024 32.9242 24.1445 32.9455C25.8506 32.9667 27.2168 34.3138 27.2168 35.9798C27.2168 37.6884 25.8361 39.0071 24.0723 39H24.065Z" fill="#222222"/>
<path d="M10.1928 32.9455C11.8844 32.9526 13.294 34.3209 13.3013 35.9656C13.3157 37.6672 11.8844 39.0213 10.0844 39C8.39283 38.9858 7.01211 37.6175 7.00488 35.9586C7.00488 34.3209 8.4579 32.9384 10.1928 32.9526V32.9455Z" fill="#222222"/>
<path d="M34.7422 35.9444C34.7422 34.2783 36.1085 32.9596 37.8506 32.9455C39.5928 32.9384 40.9952 34.3208 40.9735 36.0153C40.9518 37.7026 39.5928 39 37.8506 39C36.0795 39 34.7422 37.6813 34.7422 35.9444Z" fill="#222222"/>
<path d="M15.4699 0.460826V3.86384C13.9519 1.64479 12 0.432467 9.52053 0.106344C5.42174 -0.432467 1.99523 1.16979 0.650652 5.28177C0.303664 6.33812 0.043423 7.46537 0.0289651 8.56426C-0.0216373 12.5203 -0.0216373 16.4834 0.108483 20.4394C0.173543 22.4103 0.889206 24.2536 2.27716 25.7566C4.30125 27.9473 6.91812 28.3514 9.73017 28.0324C11.6892 27.8055 13.4241 27.0753 14.6964 25.5155C14.9278 25.232 15.1374 24.9342 15.3615 24.6435C15.4121 24.6577 15.4627 24.6719 15.5061 24.6861V38.7377H19.3446V0.460826H15.4699ZM15.4049 19.3334C15.1952 23.8353 11.2049 25.8133 7.19282 24.367C5.01692 23.5801 4.08439 21.7935 3.93981 19.6595C3.80969 17.8375 3.91089 15.9942 3.91089 14.158C3.91089 12.3218 3.8386 10.4855 3.92535 8.65643C4.05547 5.93401 5.71812 3.99855 8.23378 3.45265C11.9928 2.63734 15.2747 4.97691 15.4121 8.73441C15.535 12.265 15.5711 15.8099 15.4121 19.3334H15.4049Z" fill="#222222"/>
<path d="M47.9856 15.4412C47.9422 12.6692 47.9494 9.89003 47.7109 7.13216C47.5229 4.89184 46.547 2.91384 44.6964 1.46047C42.1012 -0.574252 37.3301 -0.460818 34.4603 1.7157C33.7518 2.25451 33.1229 2.87839 32.4506 3.46683V0.467922H28.6121V38.7377H32.4723V24.7641C34.1928 26.8697 35.588 27.7204 38.4434 28.0253C42.9759 28.5145 46.3735 26.5152 47.5157 21.9707C48.0578 19.8155 48.0217 17.6248 47.9856 15.4341V15.4412ZM44.147 18.7024C44.1109 20.5032 43.6482 22.2331 42.1807 23.4667C40.3446 25.0122 38.1976 25.1965 36.0217 24.3883C33.8458 23.5801 32.7687 21.8006 32.5735 19.6241C32.4072 17.7382 32.5374 15.8311 32.5374 13.9311C32.5374 12.0736 32.4 10.2091 32.5735 8.37285C32.7831 6.12544 33.9759 4.38139 36.2386 3.64407C38.5084 2.89966 40.6699 3.19034 42.441 4.90602C43.7133 6.13962 44.1181 7.77023 44.147 9.45047C44.2048 12.5345 44.2121 15.6255 44.147 18.7095V18.7024Z" fill="#222222"/>
</g>
<defs>
<clipPath id="clip0_60_16">
<rect width="48" height="39" fill="white"/>
</clipPath>
</defs>
</svg>

<?xml version="1.0" encoding="UTF-8"?>
<svg id="Camada_1" xmlns="http://www.w3.org/2000/svg" version="1.1" xmlns:xlink="http://www.w3.org/1999/xlink" viewBox="0 0 48 39">
  <!-- Generator: Adobe Illustrator 29.3.1, SVG Export Plug-In . SVG Version: 2.1.0 Build 151)  -->
  <defs>
    <style>
      .st0 {
        fill: #2d4257;
      }

      .st1 {
        fill: none;
      }

      .st2 {
        fill: #527ea1;
      }

      .st3 {
        clip-path: url(#clippath);
      }
    </style>
    <clipPath id="clippath">
      <rect class="st1" y="0" width="48" height="39"/>
    </clipPath>
  </defs>
  <g class="st3">
    <g>
      <path class="st2" d="M24.1,39c-1.7,0-3.2-1.4-3.1-3.1,0-1.7,1.5-3,3.2-3s3.1,1.4,3.1,3-1.4,3-3.1,3h-.1Z"/>
      <path class="st0" d="M10.2,32.9c1.7,0,3.1,1.4,3.1,3s-1.4,3.1-3.2,3c-1.7,0-3.1-1.4-3.1-3s1.5-3,3.2-3h0Z"/>
      <path class="st0" d="M34.7,35.9c0-1.7,1.4-3,3.1-3s3.1,1.4,3.1,3.1-1.4,3-3.1,3-3.1-1.3-3.1-3.1Z"/>
      <path d="M15.5.5v3.4C14,1.6,12,.4,9.5.1,5.4-.4,2,1.2.7,5.3c-.4,1-.7,2.2-.7,3.3v11.9c0,2,.8,3.8,2.2,5.3,2,2.2,4.6,2.6,7.5,2.3,2-.2,3.7-1,5-2.5.2-.3.4-.6.7-.9h.1v14.1h3.8V.5h-3.9.1ZM15.4,19.3c-.2,4.5-4.2,6.5-8.2,5-2.2-.8-3.1-2.6-3.3-4.7,0-1.8,0-3.7,0-5.5v-5.5c0-2.7,1.8-4.7,4.3-5.2,3.8-.8,7,1.5,7.2,5.3.1,3.5.2,7.1,0,10.6h0Z"/>
      <path d="M48,15.4c0-2.8,0-5.6-.3-8.3-.2-2.2-1.2-4.2-3-5.7-2.6-2-7.4-1.9-10.2.3-.7.5-1.3,1.2-2,1.8V.5h-3.8v38.3h3.9v-14c1.7,2.1,3.1,3,6,3.3,4.5.5,7.9-1.5,9.1-6.1.5-2.2.5-4.3.5-6.5h-.2ZM44.1,18.7c0,1.8-.5,3.5-2,4.8-1.8,1.5-4,1.7-6.2.9-2.2-.8-3.3-2.6-3.4-4.8-.2-1.9,0-3.8,0-5.7s0-3.7,0-5.6c.2-2.2,1.4-4,3.7-4.7,2.3-.7,4.4-.5,6.2,1.3,1.3,1.2,1.7,2.9,1.7,4.5v9.3h0Z"/>
    </g>
  </g>
</svg>
